images/logo.svg

<?xml version="1.0" encoding="UTF-8" standalone="no"?>
<svg
   width="96"
   height="21"
   viewBox="0 0 96 21"
   fill="none"
   version="1.1"
   id="svg1"
   sodipodi:docname="logo.svg"
   inkscape:version="1.3 (0e150ed6c4, 2023-07-21)"
   xmlns:inkscape="http://www.inkscape.org/namespaces/inkscape"
   xmlns:sodipodi="http://sodipodi.sourceforge.net/DTD/sodipodi-0.dtd"
   xmlns="http://www.w3.org/2000/svg"
   xmlns:svg="http://www.w3.org/2000/svg">
  <defs
     id="defs1" />
  <sodipodi:namedview
     id="namedview1"
     pagecolor="#505050"
     bordercolor="#eeeeee"
     borderopacity="1"
     inkscape:showpageshadow="0"
     inkscape:pageopacity="0"
     inkscape:pagecheckerboard="0"
     inkscape:deskcolor="#505050"
     inkscape:zoom="7.3215015"
     inkscape:cx="41.24837"
     inkscape:cy="-9.2194204"
     inkscape:window-width="1920"
     inkscape:window-height="1017"
     inkscape:window-x="-8"
     inkscape:window-y="-8"
     inkscape:window-maximized="1"
     inkscape:current-layer="svg1" />
  <path
     d="M 0.987109,20 V 19.72 L 1.54711,19.524 c 0.63467,-0.2053 0.952,-0.7373 0.952,-1.596 V 3.592 c 0,-0.37333 -0.04667,-0.672 -0.14,-0.896 C 2.28444,2.472 2.06978,2.28533 1.71511,2.136 L 0.987109,1.8 V 1.52 H 6.39111 L 11.5711,15.072 16.4431,1.52 h 5.516 V 1.8 l -0.448,0.168 c -0.3547,0.13067 -0.5973,0.31733 -0.728,0.56 -0.1307,0.224 -0.196,0.52267 -0.196,0.896 v 14.644 c 0,0.3733 0.0467,0.6627 0.14,0.868 0.0933,0.2053 0.3173,0.3827 0.672,0.532 l 0.56,0.252 V 20 h -6.972 v -0.28 l 0.588,-0.252 c 0.3547,-0.1493 0.5787,-0.3267 0.672,-0.532 0.0933,-0.2053 0.14,-0.4947 0.14,-0.868 v -6.3 L 16.4431,3.76 10.5911,20 H 9.19111 l -6.104,-16.044 0.084,6.972 v 7.056 c 0,0.4107 0.056,0.7467 0.168,1.008 0.13067,0.2427 0.37333,0.42 0.728,0.532 l 0.616,0.196 V 20 Z M 29.4813,20.42 c -1.4187,0 -2.6507,-0.2893 -3.696,-0.868 -1.0454,-0.5973 -1.8574,-1.4373 -2.436,-2.52 -0.56,-1.0827 -0.84,-2.352 -0.84,-3.808 0,-1.456 0.2986,-2.716 0.896,-3.78 0.616,-1.064 1.4466,-1.88533 2.492,-2.464 1.064,-0.57867 2.2586,-0.868 3.584,-0.868 1.3253,0 2.5106,0.28933 3.556,0.868 1.0453,0.56 1.8666,1.372 2.464,2.436 0.616,1.064 0.924,2.3333 0.924,3.808 0,1.4747 -0.2894,2.7533 -0.868,3.836 -0.56,1.064 -1.3627,1.8947 -2.408,2.492 -1.0267,0.5787 -2.2494,0.868 -3.668,0.868 z m 0,-0.56 c 0.6533,0 1.176,-0.1867 1.568,-0.56 0.392,-0.3733 0.672,-1.036 0.84,-1.988 0.1866,-0.952 0.28,-2.296 0.28,-4.032 0,-1.7547 -0.0934,-3.108 -0.28,-4.06 -0.168,-0.952 -0.448,-1.61467 -0.84,-1.988 -0.392,-0.37333 -0.9147,-0.56 -1.568,-0.56 -0.6534,0 -1.1854,0.18667 -1.596,0.56 -0.392,0.37333 -0.6814,1.036 -0.868,1.988 -0.168,0.952 -0.252,2.3053 -0.252,4.06 0,1.736 0.084,3.08 0.252,4.032 0.1866,0.952 0.476,1.6147 0.868,1.988 0.4106,0.3733 0.9426,0.56 1.596,0.56 z M 37.6551,20 v -0.28 l 0.392,-0.112 c 0.6533,-0.1867 0.98,-0.644 0.98,-1.372 V 9.472 c 0,-0.41067 -0.0654,-0.70933 -0.196,-0.896 -0.1307,-0.20533 -0.3827,-0.34533 -0.756,-0.42 l -0.42,-0.112 v -0.28 l 4.788,-1.624 0.28,0.28 0.224,1.68 c 0.6533,-0.57867 1.3906,-1.05467 2.212,-1.428 0.8213,-0.37333 1.6333,-0.56 2.436,-0.56 1.232,0 2.1746,0.336 2.828,1.008 0.672,0.672 1.008,1.69867 1.008,3.08 v 8.064 c 0,0.728 0.3546,1.1853 1.064,1.372 l 0.252,0.084 V 20 h -6.608 v -0.28 l 0.364,-0.112 c 0.6533,-0.2053 0.98,-0.6627 0.98,-1.372 V 9.304 c 0,-1.19467 -0.5974,-1.792 -1.792,-1.792 -0.8214,0 -1.7174,0.41067 -2.688,1.232 v 9.52 c 0,0.728 0.3266,1.1853 0.98,1.372 l 0.252,0.084 V 20 Z M 57.2026,4.656 c -0.6347,0 -1.176,-0.196 -1.624,-0.588 -0.4294,-0.41067 -0.644,-0.924 -0.644,-1.54 0,-0.63467 0.2146,-1.148 0.644,-1.540001 0.448,-0.392 0.9893,-0.588 1.624,-0.588 0.6346,0 1.1666,0.196 1.596,0.588 0.4293,0.392001 0.644,0.905331 0.644,1.540001 0,0.616 -0.2147,1.12933 -0.644,1.54 -0.4294,0.392 -0.9614,0.588 -1.596,0.588 z M 53.8986,20 v -0.28 l 0.392,-0.112 c 0.3733,-0.112 0.6253,-0.28 0.756,-0.504 0.1493,-0.224 0.224,-0.5227 0.224,-0.896 V 9.444 c 0,-0.392 -0.0747,-0.68133 -0.224,-0.868 -0.1307,-0.20533 -0.3827,-0.34533 -0.756,-0.42 l -0.392,-0.084 v -0.28 l 5.124,-1.652 0.28,0.28 -0.084,3.976 v 7.84 c 0,0.3733 0.0653,0.672 0.196,0.896 0.1493,0.224 0.4013,0.392 0.756,0.504 l 0.28,0.084 V 20 Z m 14.7356,0.42 c -1.2693,0 -2.4266,-0.2707 -3.472,-0.812 -1.0266,-0.56 -1.848,-1.3627 -2.464,-2.408 -0.5973,-1.064 -0.896,-2.3613 -0.896,-3.892 0,-1.512 0.3267,-2.8 0.98,-3.864 0.672,-1.08267 1.5587,-1.904 2.66,-2.464 1.12,-0.57867 2.3427,-0.868 3.668,-0.868 1.0827,0 1.9974,0.17733 2.744,0.532 0.7467,0.35467 1.316,0.82133 1.708,1.4 0.392,0.56 0.588,1.148 0.588,1.764 0,0.5227 -0.1586,0.9333 -0.476,1.232 -0.3173,0.28 -0.728,0.42 -1.232,0.42 -0.5413,0 -0.98,-0.196 -1.316,-0.588 -0.336,-0.392 -0.532,-0.90533 -0.588,-1.54 -0.0186,-0.41067 -0.0093,-0.756 0.028,-1.036 0.0374,-0.29867 0.0374,-0.59733 0,-0.896 -0.0746,-0.31733 -0.196,-0.52267 -0.364,-0.616 -0.1493,-0.112 -0.364,-0.168 -0.644,-0.168 -1.1386,0 -2.0253,0.49467 -2.66,1.484 -0.616,0.98933 -0.924,2.5667 -0.924,4.732 0,1.8853 0.3454,3.332 1.036,4.34 0.7094,0.9893 1.792,1.484 3.248,1.484 0.8774,0 1.5867,-0.1587 2.128,-0.476 0.5414,-0.3173 1.064,-0.7933 1.568,-1.428 l 0.28,0.224 c -0.4666,1.1013 -1.1853,1.9507 -2.156,2.548 -0.9706,0.5973 -2.1186,0.896 -3.444,0.896 z m 10.98,0 c -1.0827,0 -1.9974,-0.308 -2.744,-0.924 -0.728,-0.616 -1.092,-1.5027 -1.092,-2.66 0,-0.8773 0.448,-1.68 1.344,-2.408 0.896,-0.7467 2.3053,-1.3067 4.228,-1.68 0.2986,-0.056 0.6346,-0.112 1.008,-0.168 0.3733,-0.0747 0.7653,-0.1493 1.176,-0.224 v -2.212 c 0,-1.26933 -0.1587,-2.156 -0.476,-2.66 C 82.7595,6.96133 82.2835,6.7 81.6302,6.7 c -0.448,0 -0.8027,0.14933 -1.064,0.448 -0.2614,0.28 -0.4294,0.77467 -0.504,1.484 l -0.056,0.308 c -0.0374,0.80267 -0.2334,1.3907 -0.588,1.764 -0.3547,0.3733 -0.7934,0.56 -1.316,0.56 -0.4854,0 -0.8867,-0.1493 -1.204,-0.448 -0.3174,-0.2987 -0.476,-0.7 -0.476,-1.204 0,-0.76533 0.2613,-1.40933 0.784,-1.932 0.5413,-0.52267 1.2506,-0.91467 2.128,-1.176 0.8773,-0.26133 1.8293,-0.392 2.856,-0.392 1.6613,0 2.94,0.41067 3.836,1.232 0.9146,0.80267 1.372,2.11867 1.372,3.948 v 6.188 c 0,0.84 0.392,1.26 1.176,1.26 h 0.616 l 0.252,0.224 c -0.3547,0.448 -0.7467,0.7933 -1.176,1.036 -0.4107,0.2427 -0.9987,0.364 -1.764,0.364 -0.8214,0 -1.4747,-0.1867 -1.96,-0.56 -0.4667,-0.392 -0.7747,-0.9053 -0.924,-1.54 -0.56,0.5973 -1.1387,1.1107 -1.736,1.54 -0.5787,0.4107 -1.3347,0.616 -2.268,0.616 z m 1.708,-1.708 c 0.3733,0 0.7186,-0.084 1.036,-0.252 0.336,-0.1867 0.728,-0.4667 1.176,-0.84 v -4.704 c -0.1867,0.0373 -0.3734,0.0747 -0.56,0.112 -0.1867,0.0373 -0.4014,0.0747 -0.644,0.112 -0.8587,0.224 -1.5494,0.6067 -2.072,1.148 -0.504,0.5227 -0.756,1.232 -0.756,2.128 0,0.7653 0.1773,1.344 0.532,1.736 0.3546,0.3733 0.784,0.56 1.288,0.56 z m 12.0562,1.708 c -0.672,0 -1.2414,-0.2333 -1.708,-0.7 -0.4667,-0.4667 -0.7,-1.0267 -0.7,-1.68 0,-0.6533 0.2333,-1.2227 0.7,-1.708 0.4666,-0.4853 1.036,-0.728 1.708,-0.728 0.672,0 1.2413,0.2427 1.708,0.728 0.4666,0.4853 0.7,1.0547 0.7,1.708 0,0.6533 -0.2334,1.2133 -0.7,1.68 -0.4667,0.4667 -1.036,0.7 -1.708,0.7 z"
     fill="#fef5e4"
     id="path1"
     style="display:none" />
  <text
     xml:space="preserve"
     style="font-style:italic;font-variant:normal;font-weight:bold;font-stretch:normal;font-size:28.7812px;font-family:'Times New Roman';-inkscape-font-specification:'Times New Roman, Bold Italic';font-variant-ligatures:normal;font-variant-caps:normal;font-variant-numeric:normal;font-variant-east-asian:normal;letter-spacing:1px;fill:#e0d7e5;stroke:none;stroke-width:4.53246"
     x="6.9615684"
     y="20.119997"
     id="text1"><tspan
       sodipodi:role="line"
       id="tspan1"
       x="6.9615684"
       y="20.119997"
       style="font-style:italic;font-variant:normal;font-weight:bold;font-stretch:normal;font-size:28.7812px;font-family:'Times New Roman';-inkscape-font-specification:'Times New Roman, Bold Italic';font-variant-ligatures:normal;font-variant-caps:normal;font-variant-numeric:normal;font-variant-east-asian:normal;letter-spacing:1px;stroke-width:4.53246"><tspan
   style="font-style:normal;font-variant:normal;font-weight:bold;font-stretch:normal;font-size:28.7812px;font-family:'Times New Roman';-inkscape-font-specification:'Times New Roman, Bold';font-variant-ligatures:normal;font-variant-caps:normal;font-variant-numeric:normal;font-variant-east-asian:normal;letter-spacing:1px;stroke-width:4.53246"
   id="tspan2">A</tspan>licia.</tspan></text>
</svg>

<svg width="96" height="21" viewBox="0 0 96 21" fill="none" xmlns="http://www.w3.org/2000/svg">
<path d="M0.987109 20V19.72L1.54711 19.524C2.18178 19.3187 2.49911 18.7867 2.49911 17.928V3.592C2.49911 3.21867 2.45244 2.92 2.35911 2.696C2.28444 2.472 2.06978 2.28533 1.71511 2.136L0.987109 1.8V1.52H6.39111L11.5711 15.072L16.4431 1.52H21.9591V1.8L21.5111 1.968C21.1564 2.09867 20.9138 2.28533 20.7831 2.528C20.6524 2.752 20.5871 3.05067 20.5871 3.424V18.068C20.5871 18.4413 20.6338 18.7307 20.7271 18.936C20.8204 19.1413 21.0444 19.3187 21.3991 19.468L21.9591 19.72V20H14.9871V19.72L15.5751 19.468C15.9298 19.3187 16.1538 19.1413 16.2471 18.936C16.3404 18.7307 16.3871 18.4413 16.3871 18.068V11.768L16.4431 3.76L10.5911 20H9.19111L3.08711 3.956L3.17111 10.928V17.984C3.17111 18.3947 3.22711 18.7307 3.33911 18.992C3.46978 19.2347 3.71244 19.412 4.06711 19.524L4.68311 19.72V20H0.987109ZM29.4813 20.42C28.0626 20.42 26.8306 20.1307 25.7853 19.552C24.7399 18.9547 23.9279 18.1147 23.3493 17.032C22.7893 15.9493 22.5093 14.68 22.5093 13.224C22.5093 11.768 22.8079 10.508 23.4053 9.444C24.0213 8.38 24.8519 7.55867 25.8973 6.98C26.9613 6.40133 28.1559 6.112 29.4813 6.112C30.8066 6.112 31.9919 6.40133 33.0373 6.98C34.0826 7.54 34.9039 8.352 35.5013 9.416C36.1173 10.48 36.4253 11.7493 36.4253 13.224C36.4253 14.6987 36.1359 15.9773 35.5573 17.06C34.9973 18.124 34.1946 18.9547 33.1493 19.552C32.1226 20.1307 30.8999 20.42 29.4813 20.42ZM29.4813 19.86C30.1346 19.86 30.6573 19.6733 31.0493 19.3C31.4413 18.9267 31.7213 18.264 31.8893 17.312C32.0759 16.36 32.1693 15.016 32.1693 13.28C32.1693 11.5253 32.0759 10.172 31.8893 9.22C31.7213 8.268 31.4413 7.60533 31.0493 7.232C30.6573 6.85867 30.1346 6.672 29.4813 6.672C28.8279 6.672 28.2959 6.85867 27.8853 7.232C27.4933 7.60533 27.2039 8.268 27.0173 9.22C26.8493 10.172 26.7653 11.5253 26.7653 13.28C26.7653 15.016 26.8493 16.36 27.0173 17.312C27.2039 18.264 27.4933 18.9267 27.8853 19.3C28.2959 19.6733 28.8279 19.86 29.4813 19.86ZM37.6551 20V19.72L38.0471 19.608C38.7004 19.4213 39.0271 18.964 39.0271 18.236V9.472C39.0271 9.06133 38.9617 8.76267 38.8311 8.576C38.7004 8.37067 38.4484 8.23067 38.0751 8.156L37.6551 8.044V7.764L42.4431 6.14L42.7231 6.42L42.9471 8.1C43.6004 7.52133 44.3377 7.04533 45.1591 6.672C45.9804 6.29867 46.7924 6.112 47.5951 6.112C48.8271 6.112 49.7697 6.448 50.4231 7.12C51.0951 7.792 51.4311 8.81867 51.4311 10.2V18.264C51.4311 18.992 51.7857 19.4493 52.4951 19.636L52.7471 19.72V20H46.1391V19.72L46.5031 19.608C47.1564 19.4027 47.4831 18.9453 47.4831 18.236V9.304C47.4831 8.10933 46.8857 7.512 45.6911 7.512C44.8697 7.512 43.9737 7.92267 43.0031 8.744V18.264C43.0031 18.992 43.3297 19.4493 43.9831 19.636L44.2351 19.72V20H37.6551ZM57.2026 4.656C56.5679 4.656 56.0266 4.46 55.5786 4.068C55.1492 3.65733 54.9346 3.144 54.9346 2.528C54.9346 1.89333 55.1492 1.38 55.5786 0.987999C56.0266 0.595999 56.5679 0.399999 57.2026 0.399999C57.8372 0.399999 58.3692 0.595999 58.7986 0.987999C59.2279 1.38 59.4426 1.89333 59.4426 2.528C59.4426 3.144 59.2279 3.65733 58.7986 4.068C58.3692 4.46 57.8372 4.656 57.2026 4.656ZM53.8986 20V19.72L54.2906 19.608C54.6639 19.496 54.9159 19.328 55.0466 19.104C55.1959 18.88 55.2706 18.5813 55.2706 18.208V9.444C55.2706 9.052 55.1959 8.76267 55.0466 8.576C54.9159 8.37067 54.6639 8.23067 54.2906 8.156L53.8986 8.072V7.792L59.0226 6.14L59.3026 6.42L59.2186 10.396V18.236C59.2186 18.6093 59.2839 18.908 59.4146 19.132C59.5639 19.356 59.8159 19.524 60.1706 19.636L60.4506 19.72V20H53.8986ZM68.6342 20.42C67.3649 20.42 66.2076 20.1493 65.1622 19.608C64.1356 19.048 63.3142 18.2453 62.6982 17.2C62.1009 16.136 61.8022 14.8387 61.8022 13.308C61.8022 11.796 62.1289 10.508 62.7822 9.444C63.4542 8.36133 64.3409 7.54 65.4422 6.98C66.5622 6.40133 67.7849 6.112 69.1102 6.112C70.1929 6.112 71.1076 6.28933 71.8542 6.644C72.6009 6.99867 73.1702 7.46533 73.5622 8.044C73.9542 8.604 74.1502 9.192 74.1502 9.808C74.1502 10.3307 73.9916 10.7413 73.6742 11.04C73.3569 11.32 72.9462 11.46 72.4422 11.46C71.9009 11.46 71.4622 11.264 71.1262 10.872C70.7902 10.48 70.5942 9.96667 70.5382 9.332C70.5196 8.92133 70.5289 8.576 70.5662 8.296C70.6036 7.99733 70.6036 7.69867 70.5662 7.4C70.4916 7.08267 70.3702 6.87733 70.2022 6.784C70.0529 6.672 69.8382 6.616 69.5582 6.616C68.4196 6.616 67.5329 7.11067 66.8982 8.1C66.2822 9.08933 65.9742 10.6667 65.9742 12.832C65.9742 14.7173 66.3196 16.164 67.0102 17.172C67.7196 18.1613 68.8022 18.656 70.2582 18.656C71.1356 18.656 71.8449 18.4973 72.3862 18.18C72.9276 17.8627 73.4502 17.3867 73.9542 16.752L74.2342 16.976C73.7676 18.0773 73.0489 18.9267 72.0782 19.524C71.1076 20.1213 69.9596 20.42 68.6342 20.42ZM79.6142 20.42C78.5315 20.42 77.6168 20.112 76.8702 19.496C76.1422 18.88 75.7782 17.9933 75.7782 16.836C75.7782 15.9587 76.2262 15.156 77.1222 14.428C78.0182 13.6813 79.4275 13.1213 81.3502 12.748C81.6488 12.692 81.9848 12.636 82.3582 12.58C82.7315 12.5053 83.1235 12.4307 83.5342 12.356V10.144C83.5342 8.87467 83.3755 7.988 83.0582 7.484C82.7595 6.96133 82.2835 6.7 81.6302 6.7C81.1822 6.7 80.8275 6.84933 80.5662 7.148C80.3048 7.428 80.1368 7.92267 80.0622 8.632L80.0062 8.94C79.9688 9.74267 79.7728 10.3307 79.4182 10.704C79.0635 11.0773 78.6248 11.264 78.1022 11.264C77.6168 11.264 77.2155 11.1147 76.8982 10.816C76.5808 10.5173 76.4222 10.116 76.4222 9.612C76.4222 8.84667 76.6835 8.20267 77.2062 7.68C77.7475 7.15733 78.4568 6.76533 79.3342 6.504C80.2115 6.24267 81.1635 6.112 82.1902 6.112C83.8515 6.112 85.1302 6.52267 86.0262 7.344C86.9408 8.14667 87.3982 9.46267 87.3982 11.292V17.48C87.3982 18.32 87.7902 18.74 88.5742 18.74H89.1902L89.4422 18.964C89.0875 19.412 88.6955 19.7573 88.2662 20C87.8555 20.2427 87.2675 20.364 86.5022 20.364C85.6808 20.364 85.0275 20.1773 84.5422 19.804C84.0755 19.412 83.7675 18.8987 83.6182 18.264C83.0582 18.8613 82.4795 19.3747 81.8822 19.804C81.3035 20.2147 80.5475 20.42 79.6142 20.42ZM81.3222 18.712C81.6955 18.712 82.0408 18.628 82.3582 18.46C82.6942 18.2733 83.0862 17.9933 83.5342 17.62V12.916C83.3475 12.9533 83.1608 12.9907 82.9742 13.028C82.7875 13.0653 82.5728 13.1027 82.3302 13.14C81.4715 13.364 80.7808 13.7467 80.2582 14.288C79.7542 14.8107 79.5022 15.52 79.5022 16.416C79.5022 17.1813 79.6795 17.76 80.0342 18.152C80.3888 18.5253 80.8182 18.712 81.3222 18.712ZM93.3784 20.42C92.7064 20.42 92.137 20.1867 91.6704 19.72C91.2037 19.2533 90.9704 18.6933 90.9704 18.04C90.9704 17.3867 91.2037 16.8173 91.6704 16.332C92.137 15.8467 92.7064 15.604 93.3784 15.604C94.0504 15.604 94.6197 15.8467 95.0864 16.332C95.553 16.8173 95.7864 17.3867 95.7864 18.04C95.7864 18.6933 95.553 19.2533 95.0864 19.72C94.6197 20.1867 94.0504 20.42 93.3784 20.42Z" fill="#FEF5E4"/>
</svg>
